X:20003
T:Tarbolton, The
R:Reel
C:Trad.
O:Ireland
M:4/4
L:1/8
Q:1/8=250
K:Em
"Em"Beed e2BA|GBAF GFEF|"G"Ddd^c d2AG|"D"(3FED AG FDD2|
"Em"Beed efge|"Bm"fedf edBA|"Em"GBAG FGAc|BGAF GEE2:|
|:"Em"gfef (3gfe be|gebe afef|"D"(3ddd fd adfd|ABAG FDDF|
"Em"GEE2 FEDF|E2ef gfed|B3c BAGA|BGAF GEE2:|

